build/system/DatabasesSolid.svg

<svg xmlns="http://www.w3.org/2000/svg" fill="none" viewBox="0 0 24 24" focusable="false"><path d="M0 0H24V24H0z"/><path fill="#74767B" fill-rule="evenodd" d="M17.6997 3.3501C19.3564 3.3501 20.6997 4.69336 20.6997 6.3501L20.6997 10.6992L6.69971 10.6992L6.69971 6.3501C6.69971 4.69336 8.04297 3.3501 9.69971 3.3501L17.6997 3.3501ZM10.0498 8.19971C10.0498 7.72998 10.4302 7.34961 10.8999 7.34961C11.3691 7.34961 11.7495 7.72998 11.7495 8.19971C11.7495 8.66895 11.3691 9.04932 10.8999 9.04932C10.4302 9.04932 10.0498 8.66895 10.0498 8.19971ZM4.0498 9.3501C4.0498 8.99121 4.34082 8.7002 4.69971 8.7002C5.05859 8.7002 5.34961 8.99121 5.34961 9.3501L5.34961 18.75C5.34961 19.8271 6.22266 20.7002 7.2998 20.7002L15.6997 20.7002C16.0586 20.7002 16.3496 20.9912 16.3496 21.3501C16.3496 21.709 16.0586 22 15.6997 22L7.2998 22C5.50488 22 4.0498 20.5449 4.0498 18.75L4.0498 9.3501ZM6.69971 11.9995L20.6997 11.9995L20.6997 16.3501C20.6997 18.0068 19.3564 19.3501 17.6997 19.3501L9.69971 19.3501C8.04297 19.3501 6.69971 18.0068 6.69971 16.3501L6.69971 11.9995ZM10.8999 14.3496C10.4302 14.3496 10.0498 14.73 10.0498 15.1997C10.0498 15.6689 10.4302 16.0493 10.8999 16.0493C11.3691 16.0493 11.7495 15.6689 11.7495 15.1997C11.7495 14.73 11.3691 14.3496 10.8999 14.3496Z"/></svg>

<svg xmlns="http://www.w3.org/2000/svg" fill="none" viewBox="0 0 24 24" focusable="false"><path fill="#74767B" fill-rule="evenodd" d="M17.69 3.35c1.66 0 3 1.34 3 3v4.34h-14V6.35c0-1.66 1.35-3 3-3zm-7.65 4.84a.85.85 0 1 1 1.701-.001.85.85 0 0 1-1.701.001m-6 1.16c0-.36.3-.65.65-.65.36 0 .65.29.65.65v9.4c0 1.07.88 1.95 1.95 1.95h8.4c.36 0 .65.29.65.65 0 .35-.29.65-.65.65h-8.4c-1.79 0-3.25-1.46-3.25-3.25zm2.65 2.64h14v4.36c0 1.65-1.34 3-3 3h-8c-1.65 0-3-1.35-3-3zm4.2 2.35c-.46 0-.85.39-.85.85a.85.85 0 1 0 .85-.85"/></svg>
